src/assets/duotone/Buildings2.svg

<svg width="24" height="24" viewBox="0 0 24 24"  xmlns="http://www.w3.org/2000/svg">
<path d="M10.6 4.15002V6H9.12C7.50999 6 6.70001 6.80998 6.70001 8.41998V18H4.15002C2.72002 18 2 17.28 2 15.85V4.15002C2 2.72002 2.72002 2 4.15002 2H8.45001C9.88001 2 10.6 2.72002 10.6 4.15002Z" />
<path opacity="0.4" d="M17.3702 8.41998V19.58C17.3702 21.19 16.5702 22 14.9602 22H9.12018C7.51018 22 6.7002 21.19 6.7002 19.58V8.41998C6.7002 6.80998 7.51018 6 9.12018 6H14.9602C16.5702 6 17.3702 6.80998 17.3702 8.41998Z" />
<path d="M21.9999 4.15002V15.85C21.9999 17.28 21.2799 18 19.8499 18H17.3699V8.41998C17.3699 6.80998 16.5699 6 14.9599 6H13.3999V4.15002C13.3999 2.72002 14.1199 2 15.5499 2H19.8499C21.2799 2 21.9999 2.72002 21.9999 4.15002Z" />
<path d="M14 11.75H10C9.59 11.75 9.25 11.41 9.25 11C9.25 10.59 9.59 10.25 10 10.25H14C14.41 10.25 14.75 10.59 14.75 11C14.75 11.41 14.41 11.75 14 11.75Z" />
<path d="M14 14.75H10C9.59 14.75 9.25 14.41 9.25 14C9.25 13.59 9.59 13.25 10 13.25H14C14.41 13.25 14.75 13.59 14.75 14C14.75 14.41 14.41 14.75 14 14.75Z" />
<path d="M12.75 19V22H11.25V19C11.25 18.59 11.59 18.25 12 18.25C12.41 18.25 12.75 18.59 12.75 19Z" />
</svg>

<?xml version="1.0" encoding="UTF-8"?>
<svg width="24" height="24" viewBox="0 0 24 24" xmlns="http://www.w3.org/2000/svg">
 <path d="m10.6 4.15v1.85h-1.48c-1.61 0-2.42 0.80998-2.42 2.42v9.58h-2.55c-1.43 0-2.15-0.72-2.15-2.15v-11.7c0-1.43 0.72002-2.15 2.15-2.15h4.3c1.43 0 2.15 0.72002 2.15 2.15z"/>
 <path d="m17.37 8.42v11.16c0 1.61-0.8 2.42-2.41 2.42h-5.84c-1.61 0-2.42-0.81-2.42-2.42v-11.16c0-1.61 0.80998-2.42 2.42-2.42h5.84c1.61 0 2.41 0.80998 2.41 2.42z" opacity=".4"/>
 <path d="m22 4.15v11.7c0 1.43-0.72 2.15-2.15 2.15h-2.48v-9.58c0-1.61-0.8-2.42-2.41-2.42h-1.56v-1.85c0-1.43 0.72-2.15 2.15-2.15h4.3c1.43 0 2.15 0.72002 2.15 2.15z"/>
 <path d="m14 11.75h-4c-0.41 0-0.75-0.34-0.75-0.75s0.34-0.75 0.75-0.75h4c0.41 0 0.75 0.34 0.75 0.75s-0.34 0.75-0.75 0.75z"/>
 <path d="m14 14.75h-4c-0.41 0-0.75-0.34-0.75-0.75s0.34-0.75 0.75-0.75h4c0.41 0 0.75 0.34 0.75 0.75s-0.34 0.75-0.75 0.75z"/>
 <path d="m12.75 19v3h-1.5v-3c0-0.41 0.34-0.75 0.75-0.75s0.75 0.34 0.75 0.75z"/>
</svg>
